public/img/icons/virtual-machine-icon.svg

<svg fill="none" height="56" viewBox="0 0 56 56" width="56" xmlns="http://www.w3.org/2000/svg" xmlns:xlink="http://www.w3.org/1999/xlink"><mask id="a" height="56" maskUnits="userSpaceOnUse" width="56" x="0" y="0"><circle cx="28" cy="28" fill="#636363" r="28"/></mask><circle cx="28" cy="28" fill="#ababab" r="28"/><rect fill="#fff" height="36" rx="4" stroke="#202028" width="48" x="4" y="6"/><g mask="url(#a)"><path d="m21 42h14v16h-14z" fill="#fff" stroke="#202028"/><g fill="#202028"><path d="m21 42h14v6h-14z"/><circle cx="28" cy="48" r="4"/></g></g><g stroke="#202028" stroke-linejoin="round"><path d="m28 23 10-5v12l-10 5z" fill="#e83a70"/><path d="m18 18 10 5v12l-10-5z" fill="#ff83b6"/><path d="m28 13 10 5-10 5-10-5z" fill="#ff5a96"/></g></svg>

<svg width="56" height="56" viewBox="0 0 56 56" fill="none" xmlns="http://www.w3.org/2000/svg">
<circle cx="28" cy="28" r="28" fill="#ABABAB"/>
<rect x="4" y="6" width="48" height="36" rx="4" fill="white" stroke="#202028"/>
<mask id="mask0_35_25" style="mask-type:alpha" maskUnits="userSpaceOnUse" x="0" y="0" width="56" height="56">
<circle cx="28" cy="28" r="28" fill="#636363"/>
</mask>
<g mask="url(#mask0_35_25)">
<rect x="21" y="42" width="14" height="16" fill="white" stroke="#202028"/>
<rect x="21" y="42" width="14" height="6" fill="#202028"/>
<circle cx="28" cy="48" r="4" fill="#202028"/>
</g>
<path d="M28 23L38 18V30L28 35V23Z" fill="#E83A70" stroke="#202028" stroke-linejoin="round"/>
<path d="M18 18L28 23V35L18 30V18Z" fill="#FF83B6" stroke="#202028" stroke-linejoin="round"/>
<path d="M28 13L38 18L28 23L18 18L28 13Z" fill="#FF5A96" stroke="#202028" stroke-linejoin="round"/>
</svg>
